X:1
T:Te Deum, 78.78.77
T:Te Deum, 78.78.77
T:Katholisches Gesangbuch (Vienna, Austri
T:Public Domain Courtesy of the Cyber Hymnal™
C:Katholisches Gesangbuch (Vienna, Austri
Z:Public Domain
Z:Courtesy of the Cyber Hymnal™
%%score ( 1 2 ) ( 3 4 )
L:1/8
Q:1/4=130
M:3/4
K:F
V:1 treble 
V:2 treble 
V:3 bass 
V:4 bass 
V:1
 [CF]4 [CF]2 | (F2 E2) [CF]2 (G2 F2) [EG]2 | [FA]6 [FA]4 [GA]2 | (A2 B2) [Gc]2 | (c2 B2) [FA]2 | %5
 [FA]2 [EG]4 :| [EG]4 [^FA]2 | [GB]2 [FA]2 [EG]2 | [FA]4 [FB]2 | [Gc]6 [Fd]4 [Gd]2 | %10
 (c2 B2) [FA]2 [DB]2 [FA]2 [EG]2 | [CF]6 |] %12
V:2
 x6 | C4 D4 x4 | x12 | F4 x2 | F4 x2 | x6 :| x6 | x6 | x6 | x12 | G4 x8 | x6 |] %12
V:3
 [F,A,]4 [F,A,]2 | [C,G,]4 [A,,C]2 ([B,,G,]2 [D,A,]2) [C,C]2 | [F,C]6 [F,C]4 [E,^C]2 | %3
 [D,D]4 [C,E]2 | ([A,,C]2 [B,,D]2) [F,C]2 | [F,C]2 [C,C]4 :| C4 [A,,C]2 | [G,,D]2 [A,,C]2 [C,C]2 | %8
 C4 [D,D]2 | [C,E]6 [B,,B,]4 [G,B,]2 | [E,C]4 [F,C]2 [G,,B,]2 C2 [C,C]2 | [F,A,]6 |] %12
V:4
 x6 | x12 | x12 | x6 | x6 | x6 :| (C,2 B,,2) x2 | x6 | (F,2 E,2) x2 | x12 | x8 (A,,B,,) x2 | x6 |] %12

